X:640
%%etbk:tnset id:383,pos:1,rep:3x,ant:
%%etbk:wsite https://thesession.org/tunes/1638
%%etbk:pldat 2016-01-02T14:25,2015-12-23T16:30,2015-12-13T15:36,2015-07-07T11:31,2015-06-03T19:30,2015-05-10T14:14,2015-05-05T15:21,2015-04-08T18:29,2015-04-06T10:57
T: Tatter Jack Walsh
Z: Piano Box Version by Martin Fleischmann
H: Created 2015-03-27 /  Last Modified 2015-12-13
R: jig
M: 6/8
L: 1/8
K: Dmix
|: !3!fef !1!ded | !3!cAB c2 A | !4!dc!1!A !1!GGG| !2!A!5!d!1!d !2!efg |
!3!fef ded | !3!cAB c2 A | dcA GGG | Ad^c d3 :|
|: !1!dfa dfa|dfa agf|!4!~g3 ge!1!d|!2!cde ~g3 |
afd fed | !3!cAB cde | dcA GFG| Ad^c d3 :|


